flaticon/user-interface/browser-37.svg

<svg xmlns="http://www.w3.org/2000/svg" width="32" height="32" viewBox="0 0 24 24">
    <path d="M2.800781 1.199219C1.917969 1.199219 1.199219 1.917969 1.199219 2.800781 1.199219 3.683594 1.917969 4.398438 2.800781 4.398438 3.683594 4.398438 4.398438 3.683594 4.398438 2.800781 4.398438 1.917969 3.683594 1.199219 2.800781 1.199219zM2.800781 3.601562C2.359375 3.601562 2 3.242188 2 2.800781 2 2.359375 2.359375 2 2.800781 2 3.242188 2 3.601562 2.359375 3.601562 2.800781 3.601562 3.242188 3.242188 3.601562 2.800781 3.601562zM8 2.800781C8 1.917969 7.28125 1.199219 6.398438 1.199219 5.519531 1.199219 4.800781 1.917969 4.800781 2.800781 4.800781 3.683594 5.519531 4.398438 6.398438 4.398438 7.28125 4.398438 8 3.683594 8 2.800781zM5.601562 2.800781C5.601562 2.359375 5.957031 2 6.398438 2 6.839844 2 7.199219 2.359375 7.199219 2.800781 7.199219 3.242188 6.839844 3.601562 6.398438 3.601562 5.957031 3.601562 5.601562 3.242188 5.601562 2.800781zM10 4.398438C10.882812 4.398438 11.601562 3.683594 11.601562 2.800781 11.601562 1.917969 10.882812 1.199219 10 1.199219 9.117188 1.199219 8.398438 1.917969 8.398438 2.800781 8.398438 3.683594 9.117188 4.398438 10 4.398438zM10 2C10.441406 2 10.800781 2.359375 10.800781 2.800781 10.800781 3.242188 10.441406 3.601562 10 3.601562 9.558594 3.601562 9.199219 3.242188 9.199219 2.800781 9.199219 2.359375 9.558594 2 10 2zM10 2"/>
    <path d="M 0 0 L 0 24 L 24 24 L 24 0 Z M 0.800781 0.800781 L 23.199219 0.800781 L 23.199219 4.800781 L 0.800781 4.800781 Z M 0.800781 23.199219 L 0.800781 5.601562 L 4.800781 5.601562 L 4.800781 23.199219 Z M 23.199219 23.199219 L 5.601562 23.199219 L 5.601562 5.601562 L 23.199219 5.601562 Z M 23.199219 23.199219"/>
    <path d="M3.601562 7.199219L2 7.199219C1.777344 7.199219 1.601562 7.378906 1.601562 7.601562 1.601562 7.820312 1.777344 8 2 8L3.601562 8C3.820312 8 4 7.820312 4 7.601562 4 7.378906 3.820312 7.199219 3.601562 7.199219zM3.601562 9.199219L2 9.199219C1.777344 9.199219 1.601562 9.378906 1.601562 9.601562 1.601562 9.820312 1.777344 10 2 10L3.601562 10C3.820312 10 4 9.820312 4 9.601562 4 9.378906 3.820312 9.199219 3.601562 9.199219zM3.601562 11.199219L2 11.199219C1.777344 11.199219 1.601562 11.378906 1.601562 11.601562 1.601562 11.820312 1.777344 12 2 12L3.601562 12C3.820312 12 4 11.820312 4 11.601562 4 11.378906 3.820312 11.199219 3.601562 11.199219zM3.601562 13.199219L2 13.199219C1.777344 13.199219 1.601562 13.378906 1.601562 13.601562 1.601562 13.820312 1.777344 14 2 14L3.601562 14C3.820312 14 4 13.820312 4 13.601562 4 13.378906 3.820312 13.199219 3.601562 13.199219zM3.601562 15.199219L2 15.199219C1.777344 15.199219 1.601562 15.378906 1.601562 15.601562 1.601562 15.820312 1.777344 16 2 16L3.601562 16C3.820312 16 4 15.820312 4 15.601562 4 15.378906 3.820312 15.199219 3.601562 15.199219zM3.601562 17.199219L2 17.199219C1.777344 17.199219 1.601562 17.378906 1.601562 17.601562 1.601562 17.820312 1.777344 18 2 18L3.601562 18C3.820312 18 4 17.820312 4 17.601562 4 17.378906 3.820312 17.199219 3.601562 17.199219zM3.601562 19.199219L2 19.199219C1.777344 19.199219 1.601562 19.378906 1.601562 19.601562 1.601562 19.820312 1.777344 20 2 20L3.601562 20C3.820312 20 4 19.820312 4 19.601562 4 19.378906 3.820312 19.199219 3.601562 19.199219zM3.601562 21.199219L2 21.199219C1.777344 21.199219 1.601562 21.378906 1.601562 21.601562 1.601562 21.820312 1.777344 22 2 22L3.601562 22C3.820312 22 4 21.820312 4 21.601562 4 21.378906 3.820312 21.199219 3.601562 21.199219zM13.601562 7.199219L7.199219 7.199219 7.199219 13.601562 13.601562 13.601562zM10.800781 12.800781C10.800781 12.578125 10.621094 12.398438 10.398438 12.398438 10.179688 12.398438 10 12.578125 10 12.800781L8.398438 12.800781C8.398438 12.578125 8.222656 12.398438 8 12.398438L8 10.800781C8.222656 10.800781 8.398438 10.621094 8.398438 10.398438 8.398438 10.179688 8.222656 10 8 10L8 8.398438C8.222656 8.398438 8.398438 8.222656 8.398438 8L10 8C10 8.222656 10.179688 8.398438 10.398438 8.398438 10.621094 8.398438 10.800781 8.222656 10.800781 8L12.398438 8C12.398438 8.222656 12.578125 8.398438 12.800781 8.398438L12.800781 10C12.578125 10 12.398438 10.179688 12.398438 10.398438 12.398438 10.621094 12.578125 10.800781 12.800781 10.800781L12.800781 12.398438C12.578125 12.398438 12.398438 12.578125 12.398438 12.800781zM21.601562 7.199219L15.199219 7.199219 15.199219 13.601562 21.601562 13.601562zM20.800781 12.800781L16 12.800781 16 8 20.800781 8zM13.601562 21.601562L13.601562 15.199219 7.199219 15.199219 7.199219 21.601562zM8 16L12.800781 16 12.800781 20.800781 8 20.800781zM21.601562 15.199219L15.199219 15.199219 15.199219 21.601562 21.601562 21.601562zM20.800781 20.800781L16 20.800781 16 16 20.800781 16zM20.800781 20.800781"/>
    <path d="M12 9.199219C12 9.421875 11.820312 9.601562 11.601562 9.601562 11.378906 9.601562 11.199219 9.421875 11.199219 9.199219 11.199219 8.980469 11.378906 8.800781 11.601562 8.800781 11.820312 8.800781 12 8.980469 12 9.199219zM10.800781 10.398438C10.800781 10.621094 10.621094 10.800781 10.398438 10.800781 10.179688 10.800781 10 10.621094 10 10.398438 10 10.179688 10.179688 10 10.398438 10 10.621094 10 10.800781 10.179688 10.800781 10.398438zM12 11.601562C12 11.820312 11.820312 12 11.601562 12 11.378906 12 11.199219 11.820312 11.199219 11.601562 11.199219 11.378906 11.378906 11.199219 11.601562 11.199219 11.820312 11.199219 12 11.378906 12 11.601562zM9.601562 9.199219C9.601562 9.421875 9.421875 9.601562 9.199219 9.601562 8.980469 9.601562 8.800781 9.421875 8.800781 9.199219 8.800781 8.980469 8.980469 8.800781 9.199219 8.800781 9.421875 8.800781 9.601562 8.980469 9.601562 9.199219zM9.601562 11.601562C9.601562 11.820312 9.421875 12 9.199219 12 8.980469 12 8.800781 11.820312 8.800781 11.601562 8.800781 11.378906 8.980469 11.199219 9.199219 11.199219 9.421875 11.199219 9.601562 11.378906 9.601562 11.601562zM9.601562 11.601562"/>
</svg>

<svg xmlns="http://www.w3.org/2000/svg" width="32" height="32" viewBox="0 0 24 24">
    <path d="M2.8 1.2c-.882 0-1.6.718-1.6 1.6a1.6 1.6 0 1 0 1.6-1.6zm0 2.402A.802.802 0 0 1 2.8 2a.802.802 0 0 1 0 1.602zm0 0M8 2.8c0-.882-.719-1.6-1.602-1.6A1.6 1.6 0 1 0 8 2.801zm-2.398 0a.799.799 0 1 1 1.597 0 .799.799 0 0 1-1.598 0zm0 0M10 4.398a1.6 1.6 0 0 0 1.602-1.597c0-.883-.72-1.602-1.602-1.602a1.6 1.6 0 0 0 0 3.2zM10 2a.802.802 0 0 1 0 1.602A.802.802 0 0 1 10 2zm0 0"/>
    <path d="M0 0v24h24V0zm.8.8h22.4v4H.8zm0 22.4V5.601h4v17.597zm22.4 0H5.601V5.601h17.597zm0 0"/>
    <path d="M3.602 7.2H2a.398.398 0 0 0-.398.402c0 .218.175.398.398.398h1.602a.4.4 0 0 0 0-.8zm0 0M3.602 9.2H2a.398.398 0 0 0-.398.402c0 .218.175.398.398.398h1.602a.4.4 0 0 0 0-.8zm0 0M3.602 11.2H2a.398.398 0 0 0-.398.402c0 .218.175.398.398.398h1.602a.4.4 0 0 0 0-.8zm0 0M3.602 13.2H2a.398.398 0 0 0-.398.402c0 .218.175.398.398.398h1.602a.4.4 0 0 0 0-.8zm0 0M3.602 15.2H2a.398.398 0 0 0-.398.402c0 .218.175.398.398.398h1.602a.4.4 0 0 0 0-.8zm0 0M3.602 17.2H2a.398.398 0 0 0-.398.402c0 .218.175.398.398.398h1.602a.4.4 0 0 0 0-.8zm0 0M3.602 19.2H2a.398.398 0 0 0-.398.402c0 .218.175.398.398.398h1.602a.4.4 0 0 0 0-.8zm0 0M3.602 21.2H2a.398.398 0 0 0-.398.402c0 .218.175.398.398.398h1.602a.4.4 0 0 0 0-.8zm0 0M13.602 7.2H7.199v6.402h6.403zM10.8 12.8a.401.401 0 0 0-.8 0H8.397A.398.398 0 0 0 8 12.399v-1.597c.223 0 .398-.18.398-.403A.398.398 0 0 0 8 10V8.398A.395.395 0 0 0 8.398 8H10c0 .223.18.398.398.398A.398.398 0 0 0 10.801 8h1.597c0 .223.18.398.403.398V10a.401.401 0 1 0 0 .8v1.598a.402.402 0 0 0-.403.403zm0 0M21.602 7.2h-6.403v6.402h6.403zm-.801 5.6H16V8h4.8zm0 0M13.602 21.602v-6.403H7.199v6.403zM8 16h4.8v4.8H8zm0 0M21.602 15.2h-6.403v6.402h6.403zm-.801 5.6H16V16h4.8zm0 0"/>
    <path d="M12 9.2a.401.401 0 1 1-.802.002.401.401 0 0 1 .802-.003zm0 0M10.8 10.398a.401.401 0 1 1 0 0zm0 0M12 11.602a.4.4 0 1 1-.8-.004.4.4 0 0 1 .8.004zm0 0M9.602 9.2a.401.401 0 1 1 0 0zm0 0M9.602 11.602a.401.401 0 1 1-.802-.005.401.401 0 0 1 .802.005zm0 0"/>
</svg>
